X:1
T:Title
%%score { ( 1 3 ) | 2 }
L:1/8
M:6/8
K:G
V:1 treble nm="Grand Piano"
V:3 treble 
V:2 bass 
V:1
 z3 z2[Q:1/4=100] [B,D] | [DB]2 [DB] B2 A | A3 [B,G]2 [DB] | [Gd]2 [Gd] [Fd]2 [Dc] | %4
 [DB]3- [DB]2 [B,D] | [CE]2 [DF] [DG]2 [DA] | [DB]2 [DB] [DB]2 B | A A2 [G^c]2 [Gc] | %8
 [Fd]3- [Fd]2 [Fd] | [Fd]2 [Fd] c2 B | B3 A2 D | [DG]2 [B,G] A2 D | B3- B2 B | c2 B e2 d | %14
 d2 B [DG]2 [Ec] | B2 B B2 A |[M:5/8] [B,G]-[B,G]- [B,G]3 |[M:1/8] d |[M:3/4] d6 | B2 A G2 G | %20
 [EG]2 [Ge] [DGd]2 [DGB] | [DFA]4- [DFA]A | B2 B c2 c |[M:7/8] d2 G [Ee]3 [Ge] |[M:3/4] d B2 A2 G | %25
 [Fd]4- [Fd][Ac] | [GB]2 [GB] [Gc]2 [Gc] |[M:15/16] [Gd]->[Gd][G=f] [Ge]3 [Ge]3/2 | %28
[M:3/4] [Gd] [GB]2 [FB]2 [FA] |[M:5/8] G-G- G3 |] %30
V:2
 z3 z2 [G,,G,] | [G,,G,]2 [G,,G,] [D,G,D]2 [D,F,C] | [D,F,C]3 [G,,G,]2 [G,,G,] | %3
 [D,B,]2 [D,B,] [D,A,]2 [D,F,] | [G,,G,]3- [G,,G,]2 [G,,G,] | [C,G,]2 [C,A,] [B,,G,]2 [A,,F,] | %6
 [G,,G,]2 [G,,G,] [G,,G,]2 [G,D] | [F,A,D] [F,A,D]2 [E,A,]2 [E,A,] | [D,A,]3- [D,A,]2 [D,A,] | %9
 [D,A,]2 [D,A,] [D,F,D]2 [D,G,D] | [D,G,D]3 [D,F,D]2 [C,F,] | [B,,G,]2 [G,,G,] [D,F,D]2 [F,A,] | %12
 [G,D]3- [G,D]2 [G,DG] | [G,EG]2 [G,DG] [G,CG]2 [G,B,G] | [G,B,G]2[K:bass] [G,D] [B,,G,]2 [C,G,] | %15
 [D,G,D]2 [D,G,D] [D,G,D]2 [D,F,C] |[M:5/8] [G,,G,]-[G,,G,]- [G,,G,]3 |[M:1/8] z | %18
[M:3/4] z2 [D,D] [E,D]2 [F,D] | [G,DG]2 [G,CF] [G,B,]2 [G,B,=F] | [C,C]2 [C,C] B,,2 G,, | %21
 D,4- D,[D,F,D] | [G,D]2 [G,D] [G,A,D]2 [G,A,D] |[M:7/8] [G,B,D]2 [G,B,=F][K:bass] [C,C]3 [C,C] | %24
[M:3/4][K:treble] [G,B,G] [G,DG]2[K:bass] [F,CD]2 [G,B,D] | [D,A,]4- [D,A,][G,D] | %26
 [G,D]2 [G,D] [E,C]2 [E,C] |[M:15/16] [G,B,]->[G,B,][B,,D] [C,C]3 [^C,A,]3/2 | %28
[M:3/4] [D,B,] [D,D]2 [D,D]2 [D,C] |[M:5/8] [G,B,]-[G,B,]- [G,B,]3 |] %30
V:3
 x6 | x6 | x6 | x6 | x6 | x6 | x6 | x6 | x6 | x6 | x6 | x6 | x6 | x6 | x6 | x6 |[M:5/8] x5 | %17
[M:1/8] x |[M:3/4] z2 F G2 [Ac] | x6 | x6 | x6 | x6 |[M:7/8] x7 |[M:3/4] x6 | x6 | x6 | %27
[M:15/16] x15/2 |[M:3/4] x6 |[M:5/8] x5 |] %30

